public/assets/instagram.svg

<svg width="29" height="30" viewBox="0 0 29 30" fill="none" xmlns="http://www.w3.org/2000/svg">
<g clip-path="url(#clip0)">
<path d="M20.657 0.944336H7.66708C3.43938 0.944336 0 4.38372 0 8.61141V21.6016C0 25.8291 3.43938 29.2684 7.66708 29.2684H20.6572C24.8847 29.2684 28.3241 25.8291 28.3241 21.6016V8.61141C28.3241 4.38372 24.8847 0.944336 20.657 0.944336V0.944336ZM26.6636 21.6016C26.6636 24.9135 23.9691 27.608 20.657 27.608H7.66708C4.35498 27.608 1.66048 24.9135 1.66048 21.6016V8.61141C1.66048 5.29931 4.35498 2.60482 7.66708 2.60482H20.6572C23.9691 2.60482 26.6636 5.29931 26.6636 8.61141V21.6016Z" fill="#F87E0F"/>
<path d="M14.162 7.36182C9.89153 7.36182 6.41736 10.836 6.41736 15.1065C6.41736 19.377 9.89153 22.8511 14.162 22.8511C18.4325 22.8511 21.9067 19.377 21.9067 15.1065C21.9067 10.836 18.4325 7.36182 14.162 7.36182ZM14.162 21.1906C10.8073 21.1906 8.07784 18.4614 8.07784 15.1065C8.07784 11.7518 10.8073 9.0223 14.162 9.0223C17.5169 9.0223 20.2462 11.7518 20.2462 15.1065C20.2462 18.4614 17.5169 21.1906 14.162 21.1906Z" fill="#F87E0F"/>
<path d="M22.092 4.61133C20.83 4.61133 19.8035 5.638 19.8035 6.89978C19.8035 8.16178 20.83 9.18845 22.092 9.18845C23.354 9.18845 24.3806 8.16178 24.3806 6.89978C24.3806 5.63778 23.354 4.61133 22.092 4.61133ZM22.092 7.52776C21.7458 7.52776 21.464 7.24597 21.464 6.89978C21.464 6.55338 21.7458 6.27181 22.092 6.27181C22.4384 6.27181 22.7202 6.55338 22.7202 6.89978C22.7202 7.24597 22.4384 7.52776 22.092 7.52776Z" fill="#F87E0F"/>
</g>
<defs>
<clipPath id="clip0">
<rect width="28.3242" height="28.3242" fill="white" transform="translate(0 0.944336)"/>
</clipPath>
</defs>
</svg>

<svg width="29" height="30" fill="none" xmlns="http://www.w3.org/2000/svg"><g clip-path="url(#clip0)" fill="#F87E0F"><path d="M20.657.944H7.667C3.44.944 0 4.384 0 8.611v12.99c0 4.228 3.44 7.667 7.667 7.667h12.99c4.228 0 7.667-3.439 7.667-7.666V8.612c0-4.228-3.44-7.668-7.667-7.668zm6.007 20.658a6.013 6.013 0 01-6.007 6.006H7.667a6.013 6.013 0 01-6.007-6.006V8.612a6.013 6.013 0 016.007-6.007h12.99a6.013 6.013 0 016.007 6.006v12.99z"/><path d="M14.162 7.362c-4.27 0-7.745 3.474-7.745 7.745 0 4.27 3.475 7.744 7.745 7.744s7.745-3.474 7.745-7.744c0-4.271-3.474-7.745-7.745-7.745zm0 13.829a6.091 6.091 0 01-6.084-6.084 6.091 6.091 0 016.084-6.085 6.091 6.091 0 016.084 6.085 6.09 6.09 0 01-6.084 6.084zM22.092 4.611A2.291 2.291 0 0019.804 6.9a2.291 2.291 0 002.288 2.288A2.291 2.291 0 0024.381 6.9a2.291 2.291 0 00-2.289-2.289zm0 2.917a.629.629 0 11.002-1.258.629.629 0 01-.002 1.258z"/></g><defs><clipPath id="clip0"><path fill="#fff" transform="translate(0 .944)" d="M0 0h28.324v28.324H0z"/></clipPath></defs></svg>
